X: 871
T: The Cat in the Corner
B:O'Neill's 871
Z:Transcribed by Dan G. Petersen, dangp@post6.tele.dk
M:6/8
L:1/8
K:D
A/G/|F2D DFA|dAF AFD|EGE CEC|EGE CEG|
F2D DFA|dAF AFD|GBG EFG|AFD D2:|
a/g/|f2d dfa|afd dfa|e2c ceg|gec efg|
faf edc|dcB AFA|(B/c/d)B ABG|FDD D2:|


